X: 34395
T: Richard Brennan's
R: jig
M: 6/8
K: Dmajor
|:F3 FED|FAF FEF|DFA dAF|E3 EDE|
F2 F FED|FAF FEF|DFA dAF|1 D3 D2 E:|2 D3 D2 g||
|:fed edc|dB/c/d AFA|fed edc|dfb a2 g|
fed edc|d3 AFE|DFA dAF|1 D3 D2 g:|2 D3 D2 E||

